src/icons/remove-user.svg

<?xml version="1.0" encoding="UTF-8"?>
<svg xmlns="http://www.w3.org/2000/svg" xmlns:xlink="http://www.w3.org/1999/xlink" width="32" height="32" viewBox="0 0 32 32" version="1.1">
<g id="surface1">
<path style=" stroke:none;fill-rule:nonzero;fill:rgb(0%,0%,0%);fill-opacity:1;" d="M 16 1.921875 C 12.277344 1.921875 9.816406 4.214844 9.613281 7.839844 C 9.605469 7.996094 9.601562 8.15625 9.601562 8.320312 C 9.597656 9.375 9.859375 10.429688 10.144531 11.339844 C 10.007812 11.5 9.855469 11.722656 9.75 12 C 9.660156 12.226562 9.601562 12.496094 9.601562 12.800781 C 9.601562 12.867188 9.605469 13.015625 9.613281 13.117188 C 9.789062 14.46875 10.398438 15.113281 10.933594 15.371094 C 11.109375 16.585938 11.550781 17.605469 12.160156 18.210938 L 12.160156 20.625 C 11.789062 21.511719 10.503906 22.027344 9.019531 22.617188 C 6.523438 23.617188 3.414062 24.855469 3.203125 28.765625 L 3.199219 29.441406 L 20.492188 29.441406 C 21.664062 30.992188 23.515625 32 25.601562 32 C 29.128906 32 32 29.128906 32 25.601562 C 32 22.074219 29.128906 19.199219 25.601562 19.199219 C 23.636719 19.199219 21.875 20.09375 20.699219 21.492188 C 20.308594 21.230469 20.003906 20.941406 19.839844 20.59375 L 19.839844 18.207031 C 20.546875 17.488281 20.886719 16.285156 21.046875 15.398438 C 21.628906 15.15625 22.269531 14.507812 22.390625 13.085938 C 22.398438 13.015625 22.402344 12.859375 22.402344 12.796875 C 22.398438 12.167969 22.15625 11.648438 21.855469 11.308594 C 22.074219 10.558594 22.371094 9.394531 22.398438 8.160156 C 22.398438 8.078125 22.402344 8 22.398438 7.921875 C 22.382812 5.355469 21.21875 3.695312 19.1875 3.3125 C 18.574219 2.445312 17.386719 1.921875 16 1.921875 Z M 25.601562 20.480469 C 28.433594 20.480469 30.71875 22.765625 30.71875 25.601562 C 30.71875 28.433594 28.433594 30.71875 25.601562 30.71875 C 22.765625 30.71875 20.480469 28.433594 20.480469 25.601562 C 20.480469 22.765625 22.765625 20.480469 25.601562 20.480469 Z M 23.355469 22.714844 C 23.09375 22.714844 22.859375 22.871094 22.761719 23.113281 C 22.664062 23.355469 22.722656 23.632812 22.90625 23.8125 L 24.695312 25.601562 L 22.90625 27.386719 C 22.742188 27.546875 22.671875 27.785156 22.730469 28.011719 C 22.789062 28.234375 22.964844 28.410156 23.1875 28.46875 C 23.414062 28.527344 23.652344 28.460938 23.8125 28.292969 L 25.601562 26.503906 L 27.386719 28.292969 C 27.546875 28.460938 27.785156 28.527344 28.011719 28.46875 C 28.234375 28.410156 28.410156 28.234375 28.46875 28.011719 C 28.527344 27.785156 28.460938 27.546875 28.292969 27.386719 L 26.503906 25.601562 L 28.292969 23.8125 C 28.480469 23.628906 28.539062 23.347656 28.4375 23.105469 C 28.332031 22.859375 28.089844 22.707031 27.828125 22.714844 C 27.660156 22.71875 27.503906 22.789062 27.386719 22.90625 L 25.601562 24.695312 L 23.8125 22.90625 C 23.691406 22.785156 23.527344 22.714844 23.355469 22.714844 Z M 23.355469 22.714844 "/>
</g>
</svg>

<svg role="img" viewBox="0 0 32 32" xmlns="http://www.w3.org/2000/svg"><path d="M16 1.922c-3.723 0-6.184 2.293-6.387 5.918a9.624 9.624 0 0 0-.011.48c-.004 1.055.257 2.11.543 3.02-.137.16-.29.383-.395.66-.09.227-.148.496-.148.8 0 .067.003.216.011.317.176 1.352.785 1.996 1.32 2.254.176 1.215.618 2.234 1.227 2.84v2.414c-.37.887-1.656 1.402-3.14 1.992-2.497 1-5.606 2.238-5.817 6.149l-.004.675h17.293A6.396 6.396 0 0 0 25.602 32 6.407 6.407 0 0 0 32 25.602c0-3.528-2.871-6.403-6.398-6.403a6.397 6.397 0 0 0-4.903 2.293c-.39-.262-.695-.55-.86-.898v-2.387c.708-.719 1.048-1.922 1.208-2.809.582-.242 1.223-.89 1.344-2.312.007-.07.011-.227.011-.29a2.273 2.273 0 0 0-.547-1.487c.22-.75.516-1.914.543-3.149 0-.082.004-.16 0-.238-.015-2.567-1.18-4.227-3.21-4.61-.614-.867-1.801-1.39-3.188-1.39m9.602 18.558a5.11 5.11 0 0 1 5.117 5.122 5.11 5.11 0 0 1-5.117 5.117 5.11 5.11 0 0 1-5.122-5.117 5.111 5.111 0 0 1 5.122-5.122m-2.247 2.235a.637.637 0 0 0-.593.398.644.644 0 0 0 .144.7l1.79 1.789-1.79 1.785a.648.648 0 0 0-.176.625.64.64 0 0 0 1.082.281l1.79-1.79 1.785 1.79a.64.64 0 0 0 1.082-.281.64.64 0 0 0-.176-.625l-1.79-1.785 1.79-1.79a.644.644 0 0 0 .145-.707.642.642 0 0 0-1.051-.199l-1.785 1.79-1.79-1.79a.648.648 0 0 0-.457-.191m0 0" style="stroke:none;fill-rule:nonzero;fill:rgb(0%,0%,0%);fill-opacity:1"/></svg>
